!!!COM: miss-li
!!!OTL: i-cant-get-you-off-my-mind
!!!RNB: hooktheoryid: -WegljWlorY
**kern	**text
*clefG2	*
*k[b-e-]	*
*M4/4	*
=1	=1
8dd	Cm
4gg	.
4gg	.
8gg	.
4gg	.
=2	=2
4.gg	.
8gg	.
8gg	.
8gg	.
4gg	.
=3	=3
[8ggL	.
8gg]J	Gm
16ff	.
16ee-	.
[2dd	.
8dd	.
=4	=4
2.dd]	.
8r	.
8dd	.
=5	=5
8gg	.
8ff	.
[8ggL	.
8gg]J	Cm
4gg	.
[4gg	.
=6	=6
4gg]	.
4gg	.
8ff	.
8gg	.
8ff	.
[8gg	.
=7	=7
8gg]	.
8gg	.
[4aaL	.
4aa]J	D
8aa]	.
[8dd	.
=8	=8
2..dd]	.
8r	.
*-	*-